static/assets/images/tokens/frxeth.svg

<svg width="256" height="256" viewBox="0 0 256 256" fill="none" xmlns="http://www.w3.org/2000/svg">
<path d="M128 256C198.692 256 256 198.692 256 128C256 57.3075 198.692 0 128 0C57.3075 0 0 57.3075 0 128C0 198.692 57.3075 256 128 256Z" fill="black"/>
<path d="M131.082 106.443V160.444L184.19 128.405L131.082 106.443Z" fill="white"/>
<path d="M131.082 100.348L183.707 122.118L171.128 101.701L197.875 75.0764L181.892 59.1572L158.978 81.9749L131.082 36.7063V100.348Z" fill="white"/>
<path d="M125.433 160.444V106.443L72.3255 128.405L125.433 160.444Z" fill="white"/>
<path d="M72.8079 122.118L125.433 100.348V36.7063L97.5459 81.9749L74.6238 59.1572L58.6407 75.0764L85.3874 101.693L72.8079 122.118Z" fill="white"/>
<path d="M183.593 145.215L131.082 176.896V218.855L152.689 188.545L175.242 210.996L191.225 195.085L165.961 169.936L183.593 145.215Z" fill="white"/>
<path d="M125.433 176.896L72.922 145.215L90.5543 169.936L65.2901 195.085L81.2732 210.996L103.827 188.554L125.433 218.846V176.896Z" fill="white"/>
</svg>

<svg xmlns="http://www.w3.org/2000/svg" fill="none" viewBox="0 0 256 256"><path fill="#000" d="M128 256c70.692 0 128-57.308 128-128S198.692 0 128 0 0 57.308 0 128s57.308 128 128 128"/><path fill="#fff" d="M131.082 106.443v54.001l53.108-32.039zm0-6.095 52.625 21.77-12.579-20.417 26.747-26.625-15.983-15.919-22.914 22.818-27.896-45.269zm-5.649 60.096v-54.001l-53.107 21.962zm-52.625-38.326 52.625-21.77V36.706L97.546 81.975 74.624 59.157 58.64 75.077l26.746 26.616zm110.785 23.097-52.511 31.681v41.959l21.607-30.31 22.553 22.451 15.983-15.911-25.264-25.149zm-58.16 31.681-52.511-31.681 17.632 24.721-25.264 25.149 15.983 15.911 22.554-22.442 21.606 30.292z"/></svg>
